X:1
T:Title
%%score { 1 | 2 }
L:1/8
M:6/8
K:Bb
V:1 treble nm="Grand Piano"
V:2 bass 
V:1
 z3 z2[Q:1/4=100] [B,D]/[CE]/ | [DF]2 [DF] [_D=E]2 [DG] | [DF]3 [B,D]2 [DF] | %3
 [DB]2 [FB] [GB]2 [EG] |[M:5/8] [DF]-[DF]- [DF]3 |[M:1/8] [B,D]/[CE]/ | %6
[M:3/4] [DF]2 [DF] [_D=E]2 [DG] | [DF]2 [DB] [Ec]2 [Fd] | [=EG]2 [Ec] [Ec]2 [Ed] | %9
[M:5/8] [Ec]-[Ec]- [Ec]3 |[M:1/8] [Fd]/[Ec]/ |[M:3/4] [DB]2 [Fc] [GB]2 [EG] | [DF]3 [B,D]2 [DF] | %13
 [EG]2 [FA] [GB]2 [Gc] |[M:5/8] [^Fd]-[Fd]- [Fd]3 |[M:1/8] [Fd] |[M:3/4] [Fd]2 [DB] [Ge]2 [Fd] | %17
 [Fd]2 [DB] [Ge]2 [Fd] | [=Ed]2 [Ec] d2 c |[M:5/8] [DB]-[DB]- [DB]3 |[M:1/8] [DF] | %21
[M:3/4] [DG]2 [DF] [DG]2 [DF] | [DG]2 [DF] [DB]2 [Dc] | B2 A A2 c | c2 B d3 |[M:1/8] [Fd] | %26
[M:3/4] [Fd]2 [Ge] [Fd]2 [FA] |[M:7/8] [Ac]2 [GB] [GB]3 [^Fc] |[M:3/4] [Fd]2 [Ge] [Fd]2 [FB] | %29
[M:7/8] c3 B [DB]3 |] %30
V:2
 z3 z2 [B,,F,] | [B,,B,]2 [B,,B,] [B,,G,]2 [B,,B,] | [B,,B,]3 [B,,F,]2 [B,,B,] | %3
 [B,,B,]2 [D,B,] [E,E]2 [E,B,] |[M:5/8] [B,,B,]-[B,,B,]- [B,,B,]3 |[M:1/8] [B,,F,] | %6
[M:3/4] [B,,B,]2 [B,,B,] [B,,G,]2 [B,,B,] | [B,,B,]2 [B,,B,] [B,,B,]2 [B,,B,] | %8
 [C,B,]2 [C,B,] [C,B,]2 [C,B,] |[M:5/8] [F,A,]-[F,A,]- [F,A,]3 |[M:1/8] [F,A,] | %11
[M:3/4] [B,,B,]2 [D,B,] [E,B,]2 [E,B,] | [B,,B,]3 [B,,F,]2 [B,,B,] | [E,B,]2 [E,C] [E,B,]2 [E,G,] | %14
[M:5/8] [D,A,]-[D,A,]- [D,A,]3 |[M:1/8] [B,,B,] |[M:3/4] [B,,B,]2 [B,,F,] [B,,B,]2 [B,,B,] | %17
 [B,,B,]2 [B,,B,] [B,,B,]2 [B,,B,] | [C,B,]2 [C,B,] [F,A,F]2 [F,E] | %19
[M:5/8] [B,,F,]-[B,,F,]- [B,,F,]3 |[M:1/8] [B,,B,] |[M:3/4] [B,,B,]2 [B,,B,] [B,,B,]2 [B,,B,] | %22
 [B,,B,]2 [B,,B,] [B,,B,]2 [B,,B,] | [F,CE]2 [F,CE] [F,CE]2 [F,A,E] | [B,E]2 [B,D] [B,F]3 | %25
[M:1/8][K:bass] [B,,B,] |[M:3/4] [B,,B,]2 [B,,B,] [B,,B,]2 [D,B,] | %27
[M:7/8] [E,E]2 [E,E] [E,E]3 [E,B,] |[M:3/4] [B,,B,]2 [B,,B,] [B,,B,]2 [D,B,] | %29
[M:7/8] [F,A,E]3 [F,D] [B,,F,]3 |] %30

